X:157
T: ICH HABE DEN FRUEHLING GESEHEN
N: E0739
O: Europa, Mitteleuropa, Deutschland, Hessen, Wetterau
R: Liebes - Lied, Leid, Klage, Tod
M: 6/8
L: 1/16
K: F
C2 | A3GF2F2G2A2 | A2G2z6
G2 | G3AB2c3dc2 | A6z4
c2 | A2c2c2d2d2c2 | c2B2z6
BA | G3AB2c3dc2 | A6z4
c2 | A2c2c2d2d2c2 | c2B2z6
BA | G3AB2c3dc2 | A6z4

